static/assets/images/icons/dedotfi.svg

<svg width="256" height="256" viewBox="0 0 256 256" fill="none" xmlns="http://www.w3.org/2000/svg">
<path fill-rule="evenodd" clip-rule="evenodd" d="M204.077 64.1579L147.73 33.0554C135.487 26.3149 120.4 26.3149 108.157 33.0554L51.7623 64.1579C39.5193 70.8984 32 83.4165 32 96.8975V159.103C32 172.632 39.5193 185.102 51.7623 191.842L108.109 222.945C120.352 229.685 135.439 229.685 147.682 222.945L204.029 191.842C216.272 185.102 223.791 172.584 223.791 159.103V96.8975C223.791 83.3683 216.272 70.8984 204.029 64.1579H204.077ZM75.8145 134.115V176.098H112.303C139.054 176.098 158.479 160.162 159.009 134.115H136.162C135.632 146.392 126.907 156.743 112.158 156.743H98.1315V134.115H75.8145ZM180.049 123.402C180.037 123.859 180.025 124.317 180.025 124.774H157.129C157.274 123.859 157.274 122.945 157.274 122.03C157.274 108.79 149.224 98.5344 133.366 98.5344H119.195V124.774H96.8783V79.2759H133.222C160.455 79.2759 180.073 95.453 180.073 122.03C180.073 122.487 180.061 122.945 180.049 123.402Z" fill="black"/>
</svg>

<svg xmlns="http://www.w3.org/2000/svg" fill="none" viewBox="0 0 256 256"><path fill="#000" fill-rule="evenodd" d="M204.077 64.158 147.73 33.055c-12.243-6.74-27.33-6.74-39.573 0L51.762 64.158C39.52 70.898 32 83.416 32 96.898v62.205c0 13.529 7.52 25.999 19.762 32.739l56.347 31.103c12.243 6.74 27.33 6.74 39.573 0l56.347-31.103c12.243-6.74 19.762-19.258 19.762-32.739V96.897c0-13.529-7.519-25.999-19.762-32.74zM75.815 134.115v41.983h36.488c26.751 0 46.176-15.936 46.706-41.983h-22.847c-.53 12.277-9.255 22.628-24.004 22.628H98.132v-22.628zm104.234-10.713c-.012.457-.024.915-.024 1.372h-22.896c.145-.915.145-1.829.145-2.744 0-13.24-8.05-23.496-23.908-23.496h-14.171v26.24H96.878V79.276h36.344c27.233 0 46.851 16.177 46.851 42.754 0 .457-.012.915-.024 1.372" clip-rule="evenodd"/></svg>
